assets/Zebra/Flat/zebra_flat.svg

<svg width="32" height="32" viewBox="0 0 32 32" fill="none" xmlns="http://www.w3.org/2000/svg">
<path d="M12.9988 29.7368V18.9968H9.99878V20.9968C9.99878 22.3968 10.1988 23.7968 10.5788 25.1368L11.9388 29.8068C11.9688 29.9168 12.0788 29.9968 12.1888 29.9968H12.7388C12.8788 29.9968 12.9988 29.8768 12.9988 29.7368Z" fill="#9B9B9B"/>
<path d="M21.0388 23.2768L17.9988 20.9968V19.9968H24.9988V24.0968C24.9988 24.6768 24.7988 25.2468 24.4388 25.6968L21.1988 29.7468C21.0688 29.9068 20.8788 29.9968 20.6788 29.9968H19.4588C19.2688 29.9968 19.1588 29.7768 19.2788 29.6268L21.5188 26.6368C21.8288 26.2168 21.9988 25.7168 21.9988 25.1968C21.9988 24.4368 21.6388 23.7268 21.0388 23.2768Z" fill="#9B9B9B"/>
<path d="M8.11881 2.26685C9.69217 2.26685 11.5541 3.12888 12.679 4.17605C12.8384 4.3185 12.9918 4.46885 13.1388 4.62685C14.3588 5.92685 15.0188 7.62685 15.0188 9.39685V12.3969H9.53876C9.69876 11.4669 9.81876 10.5368 9.88876 9.59685C9.94876 9.19685 9.99876 8.79685 10.0188 8.39685C10.0288 8.17685 9.96876 7.95685 9.84876 7.75685C9.64876 7.33685 9.19876 7.01685 8.72876 7.03685C8.41876 7.05685 8.13876 7.16685 7.92876 7.34685L7.53438 6.95247C7.39586 6.97083 7.25733 6.98904 7.11881 7.00685L4.39881 4.37685C4.17881 4.16685 4.18881 3.80685 4.41881 3.61685C5.42881 2.79685 6.72881 2.26685 8.11881 2.26685Z" fill="#636363"/>
<path d="M27.7704 12.4302C27.8314 11.4459 27.8738 10.762 25.7793 8.03125C25.4356 7.65625 24.7981 6.4 25.6231 5C25.6231 5 28.873 7.90625 29.373 8.71875C29.873 9.53125 30.6105 11.6 28.6855 13.625L27.7481 13C27.7481 12.7916 27.7595 12.6061 27.7704 12.4302Z" fill="#636363"/>
<path d="M12.9988 11.9968H24.9988C27.7588 11.9968 29.9988 14.2368 29.9988 16.9968V24.0968C29.9988 24.6768 29.7988 25.2468 29.4388 25.6968L26.1988 29.7468C26.0688 29.9068 25.8788 29.9968 25.6788 29.9968H24.4588C24.2688 29.9968 24.1588 29.7768 24.2988 29.6268L26.5388 26.6368C26.8488 26.2168 27.0188 25.7168 27.0188 25.1968C27.0188 24.4368 26.6588 23.7268 26.0588 23.2768L23.5388 21.3868C23.1988 21.1368 22.7888 20.9968 22.3588 20.9968H15.0088V29.7368C15.0088 29.8768 14.8888 29.9968 14.7488 29.9968H14.1988C14.0788 29.9968 13.9788 29.9168 13.9488 29.8068L12.5888 25.1368C12.1988 23.7968 11.9988 22.3968 11.9988 20.9968C9.2388 20.9968 6.9988 18.7568 6.9988 15.9968V7.97683L4.25714 9.08449L3 8.5L2.79767 7.11771C3.81295 6.02639 5.91549 3.76529 5.9988 3.66683V2.30683C5.9988 2.07683 6.2488 1.92683 6.4588 2.03683L8.0188 3.08683C10.8488 3.56683 12.9988 6.03683 12.9988 8.99683V11.9968Z" fill="#D3D3D3"/>
<path d="M8.52879 2.45685C8.80494 2.45685 9.02879 2.68071 9.02879 2.95685V4.29685C9.02879 4.78338 8.83331 5.23944 8.49235 5.5804C8.29709 5.77566 7.9805 5.77566 7.78524 5.5804C7.58998 5.38514 7.58998 5.06856 7.78524 4.87329C7.94428 4.71425 8.02879 4.51032 8.02879 4.29685V2.95685C8.02879 2.68071 8.25265 2.45685 8.52879 2.45685Z" fill="#636363"/>
<path d="M13.7188 10V9.48C13.7188 9.32 13.7088 9.16 13.6988 9H9.42878C8.52878 9 7.66878 9.32 6.99878 9.89V11.39L7.19878 11.13C7.71878 10.42 8.55878 10 9.43878 10H13.7188Z" fill="#636363"/>
<path d="M10.3088 23.9968H14.9988V22.9968H10.1388C10.1888 23.3368 10.2388 23.6668 10.3088 23.9968Z" fill="#636363"/>
<path d="M12.9988 26.5441V27.0269H11.1388L10.8488 26.0269H14.9988V27.0269H13.1388L12.9988 26.5441Z" fill="#636363"/>
<path d="M21.1388 27.1368L22.3288 28.3268L21.6988 29.1168L20.5388 27.9468L21.1388 27.1368Z" fill="#636363"/>
<path d="M21.9888 24.9968C21.9588 24.6368 21.8588 24.2968 21.6788 23.9968H24.9988V24.0968C24.9988 24.4068 24.9488 24.7068 24.8388 24.9968H21.9888Z" fill="#636363"/>
<path d="M23.9788 11.9968H24.9988C25.0788 11.9968 25.1688 11.9968 25.2488 12.0068L21.8288 16.2968C21.0588 17.2668 19.9088 17.8168 18.6788 17.8168H14.1888C13.0488 17.8168 11.9988 17.1368 11.5388 16.0868L10.2588 13.1968C10.0488 12.7068 10.0888 12.1568 10.3788 11.7068C10.6688 11.2668 11.1588 10.9968 11.6888 10.9968H13.4388L13.8988 11.5568L14.5688 11.6468C14.5638 11.6468 14.1747 11.7341 13.7851 11.8215L13.7841 11.8217C13.3941 11.9092 13.0038 11.9968 12.9988 11.9968H11.6888C11.4888 11.9968 11.3188 12.0968 11.2088 12.2568C11.1088 12.4268 11.0888 12.6168 11.1688 12.7968L12.4488 15.6868C12.7588 16.3768 13.4388 16.8168 14.1888 16.8168H18.6788C19.6088 16.8168 20.4688 16.4068 21.0488 15.6768L23.9788 11.9968Z" fill="#636363"/>
<path d="M20.5188 11.9968L18.6888 14.2468C18.5188 14.4568 18.2688 14.5768 17.9988 14.5768C17.5088 14.5768 17.1088 14.1768 17.1088 13.6868V11.9968H16.1088V13.6768C16.1088 14.7168 16.9588 15.5668 17.9988 15.5668C18.5688 15.5668 19.0988 15.3168 19.4588 14.8668L21.8088 11.9968H20.5188Z" fill="#636363"/>
<path d="M20.4088 20.9968L27.0288 12.4268C27.3388 12.5668 27.6388 12.7368 27.8988 12.9368L21.6688 20.9968H20.4088Z" fill="#636363"/>
<path d="M29.9988 18.7568H27.4988C27.2888 18.7568 27.1888 18.6068 27.1588 18.5468C27.1288 18.4868 27.0688 18.3168 27.1988 18.1468L29.5788 14.9968C29.4288 14.6668 29.2488 14.3468 29.0388 14.0568L26.3988 17.5568C26.0788 17.9768 26.0288 18.5268 26.2688 19.0068C26.4988 19.4768 26.9788 19.7668 27.4988 19.7668H29.9988V18.7568Z" fill="#636363"/>
<path d="M29.8188 25.0368L26.6988 26.3568C26.8988 25.9968 26.9988 25.6068 26.9988 25.1968V25.1468L29.9988 23.8768V24.0968C29.9988 24.4168 29.9388 24.7368 29.8188 25.0368Z" fill="#636363"/>
<path d="M27.5788 28.0269H25.4788L24.7288 29.0269H26.7788L27.5788 28.0269Z" fill="#636363"/>
<path d="M10.3888 16.6068C10.5988 17.1568 10.5288 17.7668 10.1988 18.2568C9.86878 18.7468 9.31878 19.0368 8.72878 19.0368H8.01878C7.78878 18.7268 7.58878 18.3968 7.42878 18.0368H8.72878C8.99878 18.0368 9.22878 17.9068 9.37878 17.6868C9.51878 17.4768 9.54878 17.2068 9.45878 16.9668L8.56878 14.6668C8.52878 14.5668 8.42878 14.4968 8.31878 14.4968H6.99878V13.4968H8.31878C8.83878 13.4968 9.30878 13.8168 9.49878 14.3068L10.3888 16.6068Z" fill="#636363"/>
<path d="M10.7488 3.56683C10.7488 3.29069 10.5249 3.06683 10.2488 3.06683C9.97264 3.06683 9.74878 3.29069 9.74878 3.56683V5.31683C9.74878 6.20298 10.4626 6.91683 11.3488 6.91683H13.3288C13.6049 6.91683 13.8288 6.69298 13.8288 6.41683C13.8288 6.14069 13.6049 5.91683 13.3288 5.91683H11.3488C11.0149 5.91683 10.7488 5.65069 10.7488 5.31683V3.56683Z" fill="#636363"/>
<path d="M29.9988 21.7968H24.0688L25.3988 22.7968H29.9988V21.7968Z" fill="#636363"/>
<path d="M2.25878 7.6968C2.25878 7.6968 2.47878 7.4568 2.81878 7.0968L4.27878 9.0768L3.50878 9.3868C2.86878 9.6468 2.17878 9.3168 2.02878 8.6368C1.94878 8.2968 2.03878 7.9468 2.25878 7.6968Z" fill="#636363"/>
<path d="M5.5 7C5.22 7 5 6.7871 5 6.51613V5.98387C5 5.7129 5.22 5.5 5.5 5.5C5.78 5.5 6 5.7129 6 5.98387V6.51613C6 6.7871 5.78 7 5.5 7Z" fill="#212121"/>
</svg>

<svg xmlns="http://www.w3.org/2000/svg" width="32" height="32" fill="none"><path fill="#9B9B9B" d="M12.999 29.737v-10.74h-3v2c0 1.4.2 2.8.58 4.14l1.36 4.67c.03.11.14.19.25.19h.55c.14 0 .26-.12.26-.26ZM21.039 23.277l-3.04-2.28v-1h7v4.1c0 .58-.2 1.15-.56 1.6l-3.24 4.05c-.13.16-.32.25-.52.25h-1.22c-.19 0-.3-.22-.18-.37l2.24-2.99a2.401 2.401 0 0 0-.48-3.36Z"/><path fill="#636363" d="M8.119 2.267c1.573 0 3.435.862 4.56 1.91a6.947 6.947 0 0 1 2.34 5.22v3h-5.48c.16-.93.28-1.86.35-2.8.06-.4.11-.8.13-1.2.01-.22-.05-.44-.17-.64-.2-.42-.65-.74-1.12-.72-.31.02-.59.13-.8.31l-.395-.395-.415.055-2.72-2.63a.512.512 0 0 1 .02-.76c1.01-.82 2.31-1.35 3.7-1.35ZM27.77 12.43c.061-.984.104-1.668-1.99-4.399-.344-.375-.982-1.631-.157-3.031 0 0 3.25 2.906 3.75 3.719.5.812 1.237 2.881-.688 4.906L27.748 13c0-.208.011-.394.022-.57Z"/><path fill="#D3D3D3" d="M12.999 11.997h12c2.76 0 5 2.24 5 5v7.1c0 .58-.2 1.15-.56 1.6l-3.24 4.05c-.13.16-.32.25-.52.25h-1.22c-.19 0-.3-.22-.16-.37l2.24-2.99a2.401 2.401 0 0 0-.48-3.36l-2.52-1.89c-.34-.25-.75-.39-1.18-.39h-7.35v8.74c0 .14-.12.26-.26.26h-.55c-.12 0-.22-.08-.25-.19l-1.36-4.67c-.39-1.34-.59-2.74-.59-4.14-2.76 0-5-2.24-5-5v-8.02L4.257 9.084 3 8.5l-.202-1.382a875.36 875.36 0 0 0 3.2-3.451v-1.36c0-.23.25-.38.46-.27l1.56 1.05c2.83.48 4.98 2.95 4.98 5.91v3Z"/><path fill="#636363" d="M8.529 2.457a.5.5 0 0 1 .5.5v1.34c0 .486-.196.942-.537 1.283a.5.5 0 0 1-.707-.707.81.81 0 0 0 .244-.576v-1.34a.5.5 0 0 1 .5-.5ZM13.719 10v-.52c0-.16-.01-.32-.02-.48h-4.27c-.9 0-1.76.32-2.43.89v1.5l.2-.26c.52-.71 1.36-1.13 2.24-1.13h4.28ZM10.309 23.997h4.69v-1h-4.86c.05.34.1.67.17 1ZM12.999 26.544v.483h-1.86l-.29-1h4.15v1h-1.86l-.14-.483ZM21.139 27.137l1.19 1.19-.63.79-1.16-1.17.6-.81ZM21.989 24.997c-.03-.36-.13-.7-.31-1h3.32v.1c0 .31-.05.61-.16.9h-2.85ZM23.979 11.997h1.02c.08 0 .17 0 .25.01l-3.42 4.29a4 4 0 0 1-3.15 1.52h-4.49c-1.14 0-2.19-.68-2.65-1.73l-1.28-2.89c-.21-.49-.17-1.04.12-1.49.29-.44.78-.71 1.31-.71h1.75l.46.56.67.09c-.005 0-.394.087-.784.175-.39.087-.781.175-.786.175h-1.31c-.2 0-.37.1-.48.26-.1.17-.12.36-.04.54l1.28 2.89c.31.69.99 1.13 1.74 1.13h4.49a3 3 0 0 0 2.37-1.14l2.93-3.68Z"/><path fill="#636363" d="m20.519 11.997-1.83 2.25c-.17.21-.42.33-.69.33-.49 0-.89-.4-.89-.89v-1.69h-1v1.68c0 1.04.85 1.89 1.89 1.89.57 0 1.1-.25 1.46-.7l2.35-2.87h-1.29ZM20.409 20.997l6.62-8.57c.31.14.61.31.87.51l-6.23 8.06h-1.26ZM29.999 18.757h-2.5c-.21 0-.31-.15-.34-.21a.374.374 0 0 1 .04-.4l2.38-3.15c-.15-.33-.33-.65-.54-.94l-2.64 3.5c-.32.42-.37.97-.13 1.45.23.47.71.76 1.23.76h2.5v-1.01ZM29.819 25.037l-3.12 1.32c.2-.36.3-.75.3-1.16v-.05l3-1.27v.22c0 .32-.06.64-.18.94ZM27.579 28.027h-2.1l-.75 1h2.05l.8-1ZM10.389 16.607c.21.55.14 1.16-.19 1.65s-.88.78-1.47.78h-.71a5.26 5.26 0 0 1-.59-1h1.3c.27 0 .5-.13.65-.35.14-.21.17-.48.08-.72l-.89-2.3a.272.272 0 0 0-.25-.17h-1.32v-1h1.32c.52 0 .99.32 1.18.81l.89 2.3ZM10.749 3.567a.5.5 0 0 0-1 0v1.75c0 .886.714 1.6 1.6 1.6h1.98a.5.5 0 0 0 0-1h-1.98a.597.597 0 0 1-.6-.6v-1.75ZM29.999 21.797h-5.93l1.33 1h4.6v-1ZM2.259 7.697s.22-.24.56-.6l1.46 1.98-.77.31c-.64.26-1.33-.07-1.48-.75-.08-.34.01-.69.23-.94Z"/><path fill="#212121" d="M5.5 7c-.28 0-.5-.213-.5-.484v-.532c0-.271.22-.484.5-.484s.5.213.5.484v.532C6 6.787 5.78 7 5.5 7Z"/></svg>
